32x32/apps/io.github.NhekoReborn.Nheko.svg

<svg xmlns="http://www.w3.org/2000/svg" width="32" height="32" version="1">
 <path style="opacity:0.2" d="M 30,17 A 14,14 0 0 1 16,31 14,14 0 0 1 2,17 14,14 0 0 1 16,3 14,14 0 0 1 30,17 Z"/>
 <path style="fill:#4f4f4f" d="M 30,16 A 14,14 0 0 1 16,30 14,14 0 0 1 2,16 14,14 0 0 1 16,2 14,14 0 0 1 30,16 Z"/>
 <path style="opacity:0.2" d="m 8.5625,12 -2.25,3 h 4.988281 L 7.625,22 h 2.5625 2.5625 2.5625 l 3.675781,-7 h 2.5625 L 17.875,22 h 2.5625 l 5.25,-10 H 20.5625 18 15.4375 12.875 Z"/>
 <path style="fill:#f4f4f7" d="m 17.999512,11 h 2.5625 l -5.25,10 h -2.5625 z"/>
 <path style="fill:#f4f4f7" d="m 23.124512,11 h 2.5625 l -5.25,10 h -2.5625 z"/>
 <path style="fill:#f4f4f7" d="M 8.5625 11 L 6.3125 14 L 11.300781 14 L 12.875 11 L 8.5625 11 z M 18 11 L 16.425781 14 L 16.634766 14 L 23.8125 14 L 25.6875 11 L 18.275391 11 L 18 11 z"/>
 <path style="fill:#4485e8" d="m 15.437012,11 h 2.5625 l -5.25,10 h -2.5625 z"/>
 <path style="fill:#69b0ec" d="m 12.874512,11 h 2.5625 l -5.25,10 H 7.6245117 Z"/>
 <path style="fill:#f4f4f7;opacity:0.1" d="M 16 2 A 14 14 0 0 0 2 16 A 14 14 0 0 0 2.0214844 16.585938 A 14 14 0 0 1 16 3 A 14 14 0 0 1 29.978516 16.414062 A 14 14 0 0 0 30 16 A 14 14 0 0 0 16 2 z"/>
</svg>

<svg xmlns="http://www.w3.org/2000/svg" width="32" height="32" version="1"><path style="opacity:.2" d="M30 17a14 14 0 0 1-14 14A14 14 0 0 1 2 17 14 14 0 0 1 16 3a14 14 0 0 1 14 14z"/><path style="fill:#4f4f4f" d="M30 16a14 14 0 0 1-14 14A14 14 0 0 1 2 16 14 14 0 0 1 16 2a14 14 0 0 1 14 14z"/><path style="opacity:.2" d="m8.563 12-2.25 3H11.3l-3.676 7H15.313l3.675-7h2.563l-3.676 7h2.563l5.25-10H12.874z"/><path style="fill:#f4f4f7" d="M18 11h2.562l-5.25 10H12.75zM23.125 11h2.562l-5.25 10h-2.562z"/><path style="fill:#f4f4f7" d="m8.563 11-2.25 3H11.3l1.574-3H8.562zM18 11l-1.574 3H23.812l1.875-3H18z"/><path style="fill:#4485e8" d="M15.437 11H18l-5.25 10h-2.563z"/><path style="fill:#69b0ec" d="M12.875 11h2.562l-5.25 10H7.625z"/><path style="fill:#f4f4f7;opacity:.1" d="M16 2A14 14 0 0 0 2 16a14 14 0 0 0 .021.586A14 14 0 0 1 16 3a14 14 0 0 1 13.979 13.414A14 14 0 0 0 30 16 14 14 0 0 0 16 2z"/></svg>
